svg/u1faf2_1f3fd.svg

<svg viewBox="0 0 128 128" xmlns="http://www.w3.org/2000/svg" xmlns:xlink="http://www.w3.org/1999/xlink">
  <g id="handGroup">
    <radialGradient id="hand_1_" cx="460.4083" cy="-327.4179" gradientTransform="matrix(0.0224 -0.9997 -0.9997 -0.0224 -304.4707 520.3432)" gradientUnits="userSpaceOnUse" r="89.7675">
      <stop offset="0.3533" stop-color="#BA8D68"/>
      <stop offset="0.8723" stop-color="#A47B62"/>
    </radialGradient>
    <path id="hand" d="M91.49,106.34c-4.97,0.43-55.39,0.01-55.95,0.01c-2.26-0.05-4.13-0.55-5.38-1.46 c-1.3-0.94-1.9-2.27-1.86-4.08c0.04-1.69,0.66-3.15,1.79-4.23c1.38-1.32,3.43-2.02,5.75-1.96l22.73,0.06c0.4,0,0.76-0.16,1.03-0.41 c0.28-0.27,0.45-0.63,0.46-1.04c0.02-0.81-0.62-1.48-1.42-1.5l-37.58-1.45c-3.71-0.08-7.37-2.13-7.27-6.53 c0.04-1.69,0.66-3.15,1.79-4.23c1.38-1.32,3.43-2.02,5.75-1.96l37.38,0.36c0.4,0,0.77-0.15,1.04-0.41 c0.27-0.26,0.45-0.63,0.46-1.04c0.02-0.81-0.61-1.48-1.43-1.51l-46.01-1.6c-2.1-0.05-3.98-0.72-5.3-1.86 c-1.33-1.17-2.01-2.78-1.97-4.67c0.04-1.69,0.66-3.15,1.79-4.23c1.38-1.32,3.43-2.02,5.74-1.97l45.79,0.45 c0.4,0,0.77-0.15,1.04-0.41c0.27-0.26,0.45-0.63,0.46-1.04c0.02-0.81-0.61-1.48-1.43-1.51l-34.12-1.23 c-2.12-0.05-3.99-0.71-5.3-1.86c-1.33-1.17-2.01-2.78-1.97-4.67c0.04-1.69,0.66-3.15,1.79-4.23c1.38-1.32,3.43-2.02,5.75-1.96 c12.24,0.16,44.2,0.61,45.33,0.68c3.52-0.56,1.82-3.18,0.56-4.71c-1.47-1.78-8.95-5.78-12.84-12.07 c-4.79-8.74,1.68-12.75,1.85-12.81c4.27-1.44,5.34,0.32,8.43,4.68l2.79,3.35c4.09,6.48,25.07,14.57,26.78,15.24 c9.14,3.64,25.08,13.5,24.59,35.55C121.97,98.26,100.61,106.55,91.49,106.34z" fill="url(#hand_1_)"/>
    <path id="tone_1_" d="M67.99,45.79C71.71,57.51,82.9,68.2,97.35,71.55c1.82,0.58,2.39-1.1,0.62-1.79 c-21.59-8.39-24.61-26.42-24.61-26.42L67.99,45.79z" fill="#91674D"/>
    <path id="tone" d="M98.46,37.15l-0.16-0.06C86.64,32.51,75,27,70,20c-3.39-4.74-5.69-8.51-10.54-6.15 c-0.52,0.25-2.84,1.74-3.97,4.63c-0.83,2.11-1.28,5.61,1.33,10.36c1.62,2.62,5.15,5.57,8.56,8.42c1.7,1.42,3.31,2.76,4.51,3.93 c0.69,0.67,0.8,1.14,0.77,1.35c-0.06,0.46-0.24,0.8-1.46,0.75c-0.53-0.02-2.5-0.05-5.52-0.1v2.89l10.46,0.12 c-0.57-2.14-0.03-4.93-2.2-7.14c-1.25-1.27-2.93-2.62-4.67-4.08c-3.08-2.57-6.57-5.49-7.9-7.64c-3.85-7.04,0.53-10.32,1.17-10.75 c2.65-1.42,3.46,0.39,7.59,5.5c1.67,2.06,4.15,4.72,9.82,8.26c8,5,15.19,7.86,19.26,9.46l0.15,0.06 c7.28,2.9,24.15,12.03,23.66,34.15c-0.54,24.01-21.82,31-29.51,30.82l-0.16,0c-2.85,0.25-22.12,0.25-54.28,0.01 c-0.94-0.01-1.49-0.01-1.51-0.01c-1.94-0.04-3.56-0.46-4.54-1.18c-0.89-0.65-1.28-1.53-1.25-2.86c0.03-1.29,0.49-2.39,1.33-3.2 c1.1-1.05,2.76-1.6,4.72-1.55l22.72,0.06c1.56,0.01,2.93-1.33,2.97-2.89c0.04-1.61-1.24-2.96-2.84-3.01L21.07,88.8 c-2.74-0.06-5.91-1.41-5.83-5.02c0.07-2.96,2.6-4.84,6.04-4.75l37.39,0.36c1.57,0.01,2.95-1.34,2.98-2.89 c0.04-1.62-1.25-2.97-2.86-3.02l-46.03-1.6c-1.75-0.04-3.3-0.57-4.35-1.49c-1.01-0.89-1.5-2.08-1.47-3.52 c0.07-2.96,2.6-4.83,6.03-4.76l45.8,0.45c1.57,0.01,2.95-1.34,2.98-2.89c0.04-1.62-1.25-2.97-2.85-3.02l-34.14-1.23 c-1.76-0.04-3.31-0.57-4.35-1.49c-1.01-0.89-1.5-2.08-1.47-3.52c0.07-2.96,2.61-4.84,6.04-4.75l39.27,0.45l0.02-2.89 c-6.32-0.09-18.47-0.25-29.28-0.39l-9.95-0.13c-2.72-0.07-5.13,0.77-6.8,2.37c-1.42,1.36-2.2,3.18-2.24,5.27 c-0.05,2.33,0.8,4.33,2.47,5.81c1.57,1.38,3.78,2.18,6.22,2.23l34.12,1.23l-45.77-0.45c-2.71-0.06-5.13,0.78-6.79,2.38 C4.82,62.89,4.05,64.71,4,66.8c-0.05,2.33,0.8,4.33,2.47,5.81c1.58,1.38,3.8,2.17,6.22,2.22l46.01,1.6l-37.36-0.36 c-2.72-0.07-5.13,0.77-6.8,2.37c-1.42,1.36-2.2,3.18-2.24,5.27c-0.12,5.39,4.43,7.95,8.69,8.04l37.59,1.44l-22.69-0.06 c-2.72-0.07-5.13,0.77-6.8,2.37c-1.42,1.36-2.2,3.18-2.25,5.27c-0.05,2.3,0.78,4.09,2.47,5.31c1.49,1.08,3.64,1.68,6.25,1.74 c0.07,0,0.6,0,1.51,0.01c22.66,0.17,50.41,0.3,54.48-0.02c4.95,0.08,14.86-2.46,22.44-9.7c5.5-5.26,9.77-13,10.02-24.01 C124.53,50.14,106.32,40.28,98.46,37.15z" fill="#91674D"/>
  </g>
</svg>

<svg viewBox="0 0 128 128" xmlns="http://www.w3.org/2000/svg">
  <defs>
    <radialGradient id="hand_1_" cx="-66.650672" cy="-34.665495" gradientTransform="matrix(0.0224 -0.9997 -0.9997 -0.0224 0 0)" gradientUnits="userSpaceOnUse" r="89.7675">
      <stop offset="0.3533" stop-color="#BA8D68"/>
      <stop offset="0.8723" stop-color="#A47B62"/>
    </radialGradient>
  </defs>
  <path id="hand" d="M91.49,106.34 C86.52,106.77 36.1,106.35 35.54,106.35 C33.28,106.3 31.41,105.8 30.16,104.89 C28.86,103.95 28.26,102.62 28.3,100.81 C28.34,99.12 28.96,97.66 30.09,96.58 C31.47,95.26 33.52,94.56 35.84,94.62 L58.57,94.68 C58.97,94.68 59.33,94.52 59.6,94.27 C59.88,94 60.05,93.64 60.06,93.23 C60.08,92.42 59.44,91.75 58.64,91.73 L21.06,90.28 C17.35,90.2 13.69,88.15 13.79,83.75 C13.83,82.06 14.45,80.6 15.58,79.52 C16.96,78.2 19.01,77.5 21.33,77.56 L58.71,77.92 C59.11,77.92 59.48,77.77 59.75,77.51 C60.02,77.25 60.2,76.88 60.21,76.47 C60.23,75.66 59.6,74.99 58.78,74.96 L12.77,73.36 C10.67,73.31 8.79,72.64 7.47,71.5 C6.14,70.33 5.46,68.72 5.5,66.83 C5.54,65.14 6.16,63.68 7.29,62.6 C8.67,61.28 10.72,60.58 13.03,60.63 L58.82,61.08 C59.22,61.08 59.59,60.93 59.86,60.67 C60.13,60.41 60.31,60.04 60.32,59.63 C60.34,58.82 59.71,58.15 58.89,58.12 L24.77,56.89 C22.65,56.84 20.78,56.18 19.47,55.03 C18.14,53.86 17.46,52.25 17.5,50.36 C17.54,48.67 18.16,47.21 19.29,46.13 C20.67,44.81 22.72,44.11 25.04,44.17 C37.28,44.33 69.24,44.78 70.37,44.85 C73.89,44.29 72.19,41.67 70.93,40.14 C69.46,38.36 61.98,34.36 58.09,28.07 C53.3,19.33 59.77,15.32 59.94,15.26 C64.21,13.82 65.28,15.58 68.37,19.94 L71.16,23.29 C75.25,29.77 96.23,37.86 97.94,38.53 C107.08,42.17 123.02,52.03 122.53,74.08 C121.97,98.26 100.61,106.55 91.49,106.34 Z" fill="url(#hand_1_)"/>
  <path id="tone_1_" d="M67.99,45.79 C71.71,57.51 82.9,68.2 97.35,71.55 C99.17,72.13 99.74,70.45 97.97,69.76 C76.38,61.37 73.36,43.34 73.36,43.34 L67.99,45.79 Z" fill="#91674D"/>
  <path id="tone" d="M98.46,37.15 L98.3,37.09 C86.64,32.51 75,27 70,20 C66.61,15.26 64.31,11.49 59.46,13.85 C58.94,14.1 56.62,15.59 55.49,18.48 C54.66,20.59 54.21,24.09 56.82,28.84 C58.44,31.46 61.97,34.41 65.38,37.26 C67.08,38.68 68.69,40.02 69.89,41.19 C70.58,41.86 70.69,42.33 70.66,42.54 C70.6,43 70.42,43.34 69.2,43.29 C68.67,43.27 66.7,43.24 63.68,43.19 L63.68,46.08 L74.14,46.2 C73.57,44.06 74.11,41.27 71.94,39.06 C70.69,37.79 69.01,36.44 67.27,34.98 C64.19,32.41 60.7,29.49 59.37,27.34 C55.52,20.3 59.9,17.02 60.54,16.59 C63.19,15.17 64,16.98 68.13,22.09 C69.8,24.15 72.28,26.81 77.95,30.35 C85.95,35.35 93.14,38.21 97.21,39.81 L97.36,39.87 C104.64,42.77 121.51,51.9 121.02,74.02 C120.48,98.03 99.2,105.02 91.51,104.84 L91.35,104.84 C88.5,105.09 69.23,105.09 37.07,104.85 C36.13,104.84 35.58,104.84 35.56,104.84 C33.62,104.8 32,104.38 31.02,103.66 C30.13,103.01 29.74,102.13 29.77,100.8 C29.8,99.51 30.26,98.41 31.1,97.6 C32.2,96.55 33.86,96 35.82,96.05 L58.54,96.11 C60.1,96.12 61.47,94.78 61.51,93.22 C61.55,91.61 60.27,90.26 58.67,90.21 L21.07,88.8 C18.33,88.74 15.16,87.39 15.24,83.78 C15.31,80.82 17.84,78.94 21.28,79.03 L58.67,79.39 C60.24,79.4 61.62,78.05 61.65,76.5 C61.69,74.88 60.4,73.53 58.79,73.48 L12.76,71.88 C11.01,71.84 9.46,71.31 8.41,70.39 C7.4,69.5 6.91,68.31 6.94,66.87 C7.01,63.91 9.54,62.04 12.97,62.11 L58.77,62.56 C60.34,62.57 61.72,61.22 61.75,59.67 C61.79,58.05 60.5,56.7 58.9,56.65 L24.76,55.42 C23,55.38 21.45,54.85 20.41,53.93 C19.4,53.04 18.91,51.85 18.94,50.41 C19.01,47.45 21.55,45.57 24.98,45.66 L64.25,46.11 L64.27,43.22 C57.95,43.13 45.8,42.97 34.99,42.83 L25.04,42.7 C22.32,42.63 19.91,43.47 18.24,45.07 C16.82,46.43 16.04,48.25 16,50.34 C15.95,52.67 16.8,54.67 18.47,56.15 C20.04,57.53 22.25,58.33 24.69,58.38 L58.81,59.61 L13.04,59.16 C10.33,59.1 7.91,59.94 6.25,61.54 C4.82,62.89 4.05,64.71 4,66.8 C3.95,69.13 4.8,71.13 6.47,72.61 C8.05,73.99 10.27,74.78 12.69,74.83 L58.7,76.43 L21.34,76.07 C18.62,76 16.21,76.84 14.54,78.44 C13.12,79.8 12.34,81.62 12.3,83.71 C12.18,89.1 16.73,91.66 20.99,91.75 L58.58,93.19 L35.89,93.13 C33.17,93.06 30.76,93.9 29.09,95.5 C27.67,96.86 26.89,98.68 26.84,100.77 C26.79,103.07 27.62,104.86 29.31,106.08 C30.8,107.16 32.95,107.76 35.56,107.82 C35.63,107.82 36.16,107.82 37.07,107.83 C59.73,108 87.48,108.13 91.55,107.81 C96.5,107.89 106.41,105.35 113.99,98.11 C119.49,92.85 123.76,85.11 124.01,74.1 C124.53,50.14 106.32,40.28 98.46,37.15 Z" fill="#91674D"/>
</svg>
